meat/img/sprite/facebook.svg

<svg width="14" height="26" viewBox="0 0 14 26" fill="none" xmlns="http://www.w3.org/2000/svg">
<path d="M9.04465 25.1007V13.7083H12.888L13.4593 9.24781H9.04465V6.40665C9.04465 5.11952 9.40326 4.23826 11.2506 4.23826H13.5913V0.261482C12.4524 0.139427 11.3076 0.080494 10.1622 0.0849519C6.76505 0.0849519 4.43264 2.15883 4.43264 5.96603V9.23947H0.614319V13.7H4.44098V25.1007H9.04465Z" fill="#ED3F5E"/>
</svg>

<svg width="14" height="26" fill="none" xmlns="http://www.w3.org/2000/svg"><path d="M9.045 25.1V13.709h3.843l.571-4.46H9.045V6.407c0-1.287.358-2.169 2.206-2.169h2.34V.261a31.047 31.047 0 0 0-3.429-.176c-3.397 0-5.73 2.074-5.73 5.881v3.273H.615V13.7h3.827v11.4h4.604z" fill="#ED3F5E"/></svg>
